**kern	**kern	**dynam
*part1	*part1	*part1
*staff2	*staff1	*
*I"Piano	*	*
*clefF4	*clefG2	*
*k[b-e-a-d-]	*k[b-e-a-d-]	*
=1	=1	=1
4r	4cc']) 4ee-	.
4e-'	4a-' 4cc	.
4E-'	4c' 4a-	[
=	=	=
2.ryy	(8FF-XL<	p
.	8F-X<	.
.	8dn	.
!	!	!LO:DY:a
.	8a-	>
.	8d	.
.	8a-J	.
=	=	=
*^	*	*
4r	8rEEyy	8cc-X)	.
*v	*v	*	*
.	8r	.
!	!LO:TX:b:i:t=più rall.	!
2F-X	2dn 2a-	.
=	=	=
2.ryy	(8EE-L<	] pp
.	8E-<	.
.	8d-X	.
.	8g	.
.	8d-	.
.	8gJ	.
=	=	=
*^	*	*
4r	8rEEyy	8ccn) 8ee-	.
*v	*v	*	*
.	8r	.
*	*^	*
2E-	(4f	2d-	.
.	4g)	.	.
*	*v	*v	*
=	=	=
*^	*	*
!	!	!LO:TX:a:i:t=a tempo	!
2.ryy	4.rEEyy	(8AA-L<	ppp <
.	.	8E-<	.
.	.	8c	.
*v	*v	*	*
.	8f	.
.	8e-	.
.	8fJ)	.
=	=	=
2.r	(8e-L	[ p
.	8fJ	.
.	4a-') 4cc	.
.	4a-' 4cc	.
=	=	=
*-	*-	*-
!!!system-decoration: {(s1,s2)}
!!!RDF**kern: < = below
